/* XPM */
static char * er_xpm[] = {
"18 12 17 1",
" 	c #800000",
".	c #5C9C34",
"+	c #6CB040",
"@	c #5C0000",
"#	c #C40000",
"$	c #E00000",
"%	c #7CC84C",
"&	c #90E05C",
"*	c #A00000",
"=	c #FCD400",
"-	c #FC0000",
";	c #E8B810",
">	c #3890E8",
",	c #1878DC",
"'	c #0060D4",
")	c #0034A0",
"!	c #0048B8",
"   .+.+...+.++++++",
"@####$+%%%%&%&&&&+",
" *####$#$%%%&%&&&+",
"@#*====$#$$$%&%&&+",
"@*=*###=$#$$$$-%&+",
"@*;#;##=#$#$$$$-$#",
"@*;*#;#=##$#$$$$-*",
"@*;*;=*=###$#$$>>,",
"@ *;;;=*####>,>>>'",
"@  ****#*,,,,>,>>'",
"@   **'',',,,,>,>'",
"@@@))!!!)!)!!!!'!'"};
