/* XPM */
static char * hu_xpm[] = {
"18 12 16 1",
" 	c #800000",
".	c #A00000",
"+	c #C40000",
"@	c #5C0000",
"#	c #E00000",
"$	c #FC0000",
"%	c #949494",
"&	c #B8B8B8",
"*	c #C8C8C8",
"=	c #D8D8D8",
"-	c #E8E8E8",
";	c #103418",
">	c #20482C",
",	c #386048",
"'	c #4C7458",
")	c #60886C",
"    . ....+.++++++",
"@++++#+####$#$$$$+",
" .++++#+####$#$$$+",
"@+.++++#+####$#$$+",
"%&*&****=*====-=-*",
"%&&*&****=*====-=*",
"%&&&*&****=*====-&",
"%&&&&*&****=*====*",
";>,,,,','''')'))),",
";>>,,,,','''')')),",
";>>>,,,,','''')'),",
";;;;;;;;;;;>>>;>;>"};
