/* XPM */
static char * no_xpm[] = {
"18 12 16 1",
" 	c #800000",
".	c #B8B8B8",
"+	c #00186C",
"@	c #002484",
"#	c #A00000",
"$	c #C40000",
"%	c #5C0000",
"&	c #C8C8C8",
"*	c #0048B8",
"=	c #0034A0",
"-	c #D8D8D8",
";	c #E00000",
">	c #FC0000",
",	c #949494",
"'	c #E8E8E8",
")	c #0060D4",
"    .+@.##$#$$$$$$",
"%$$$&*=-;;;>;>>>>$",
" #$$&=*&;;;;>;>>>$",
"%$#$&==-$;;;;>;>>$",
",.&.&==&-&----'-'&",
"+@@=@====*=****)*=",
"+@@@=@====*=****)*",
",....=@&&&&-&----&",
"% ##.@=.$$$$;$;;;#",
"%  #.@@&#$$$$;$;;#",
"%   .@@.$#$$$$;$;#",
"%%%%,++,%%%    % %"};
